{
  "type": "map",
  "version": "1.10",
  "tiledversion": "1.10.2",
  "orientation": "orthogonal",
  "renderorder": "right-down",
  "width": 4,
  "height": 4,
  "tilewidth": 64,
  "tileheight": 64,
  "infinite": false,
  "nextlayerid": 5,
  "nextobjectid": 7,
  "properties": [
    { "name": "cell_size_ft", "type": "int", "value": 5 }
  ],
  "layers": [
    {
      "id": 1,
      "name": "Lower rooms",
      "type": "objectgroup",
      "draworder": "topdown",
      "width": 0,
      "height": 0,
      "opacity": 1,
      "visible": true,
      "x": 0,
      "y": 0,
      "properties": [
        { "name": "z", "type": "int", "value": 0 },
        { "name": "floor_title", "type": "string", "value": "Lower Hall" }
      ],
      "objects": [
        {
          "id": 1,
          "name": "Entry",
          "type": "room",
          "x": 0,
          "y": 0,
          "width": 0,
          "height": 0,
          "rotation": 0,
          "visible": true,
          "opacity": 1,
          "polygon": [
            { "x": 0, "y": 0 },
            { "x": 128, "y": 0 },
            { "x": 128, "y": 64 },
            { "x": 64, "y": 64 },
            { "x": 64, "y": 128 },
            { "x": 0, "y": 128 }
          ],
          "properties": [
            { "name": "maplab_id", "type": "int", "value": 1 }
          ]
        }
      ]
    },
    {
      "id": 2,
      "name": "Lower fixtures",
      "type": "objectgroup",
      "draworder": "topdown",
      "width": 0,
      "height": 0,
      "opacity": 1,
      "visible": true,
      "x": 0,
      "y": 0,
      "properties": [
        { "name": "z", "type": "int", "value": 0 },
        { "name": "floor_title", "type": "string", "value": "Lower Hall" }
      ],
      "objects": [
        {
          "id": 2,
          "name": "Entry door",
          "type": "door",
          "point": true,
          "x": 128,
          "y": 32,
          "width": 0,
          "height": 0,
          "rotation": 0,
          "visible": true,
          "opacity": 1,
          "properties": [
            { "name": "maplab_id", "type": "int", "value": 5 },
            { "name": "side", "type": "string", "value": "E" },
            { "name": "hidden", "type": "bool", "value": true }
          ]
        },
        {
          "id": 3,
          "name": "Chest",
          "type": "prop",
          "point": true,
          "x": 32,
          "y": 32,
          "width": 0,
          "height": 0,
          "rotation": 0,
          "visible": true,
          "opacity": 1,
          "properties": [
            { "name": "maplab_id", "type": "int", "value": 9 },
            { "name": "kind", "type": "string", "value": "chest" }
          ]
        },
        {
          "id": 4,
          "name": "Lower stair landing",
          "type": "stair-end",
          "point": true,
          "x": 32,
          "y": 96,
          "width": 0,
          "height": 0,
          "rotation": 0,
          "visible": true,
          "opacity": 1,
          "properties": [
            { "name": "stair_id", "type": "int", "value": 2 },
            { "name": "endpoint", "type": "string", "value": "from" }
          ]
        }
      ]
    },
    {
      "id": 3,
      "name": "Upper rooms",
      "type": "objectgroup",
      "draworder": "topdown",
      "width": 0,
      "height": 0,
      "opacity": 1,
      "visible": true,
      "x": 0,
      "y": 0,
      "properties": [
        { "name": "z", "type": "int", "value": 1 },
        { "name": "floor_title", "type": "string", "value": "Upper Vault" }
      ],
      "objects": [
        {
          "id": 5,
          "name": "Vault",
          "type": "room",
          "x": 0,
          "y": 0,
          "width": 0,
          "height": 0,
          "rotation": 0,
          "visible": true,
          "opacity": 1,
          "polygon": [
            { "x": 0, "y": 0 },
            { "x": 64, "y": 0 },
            { "x": 64, "y": 64 },
            { "x": 0, "y": 64 }
          ],
          "properties": [
            { "name": "maplab_id", "type": "int", "value": 2 }
          ]
        }
      ]
    },
    {
      "id": 4,
      "name": "Upper fixtures",
      "type": "objectgroup",
      "draworder": "topdown",
      "width": 0,
      "height": 0,
      "opacity": 1,
      "visible": true,
      "x": 0,
      "y": 0,
      "properties": [
        { "name": "z", "type": "int", "value": 1 },
        { "name": "floor_title", "type": "string", "value": "Upper Vault" }
      ],
      "objects": [
        {
          "id": 6,
          "name": "Upper stair landing",
          "type": "stair-end",
          "point": true,
          "x": 32,
          "y": 32,
          "width": 0,
          "height": 0,
          "rotation": 0,
          "visible": true,
          "opacity": 1,
          "properties": [
            { "name": "stair_id", "type": "int", "value": 2 },
            { "name": "endpoint", "type": "string", "value": "to" }
          ]
        }
      ]
    }
  ]
}
